X: 9157
T: Stonehill Fair (with piano acc.)
C: BB
R: jig
Q: 1/8=320
M: 6/8
L: 1/8
V: 1 program 1 73 %flute
V: 2 volume=70 clef=bass m=D program 1 01
K: D
[V:1] E|"Bm"FBB dBB | "D"afd "A"cBc | "Bm"FBB dcd | "D"fdc "Bm"B2 A |
[V:2] z|B,,2[BDF]F,,2[BDF]|D,2[AFD]A,,2[AEC]|B,,2[BDF]F,,2[BDF]|D,2[AFD]B,,2[BFD]|
%
[V:1] "Bm"FBB dBB|"D"afd "A"cBA | "D"FAd "G"BGB | "A7"AGE "D"D2 :|
[V:2] B,,2[BDF]F,,2[BDF]|D,2[AFD]A,,2[AEC]|D,2[AFD]G,,2[GDB]|A,,2[GCE][D,2A,2F2]:|
%
[V:1] A|"Bm"Bff "F#m"cff | "D"dfa "Bm"baf | "D"d2 f "Em"ede | "D"fdc "Bm"B2 A |
[V:2] z|B,,2[BFD]F,,2[FCA]|D,2[AFD]B,,2[BFD]|D,2[AFD]E,2[EBG]|D,2[AFD]B,,2[BFD]|
%
[V:1] "Bm"Bff "F#m"cff | "D"dfa afa | "G"b2 f "D"agf |"A"edc "D"d2 :|
[V:2] B,,2[BFD]F,,2[FCA]|D,2[AFD]A,,2[AFD]|G,,2[GDB]D,2[AFD]|A,,2[AEC][D,2A,2F2]:|
%%%%%%%%%tune repeat
[V:1] E|"Bm"FBB dBB | "D"afd "A"cBc | "Bm"FBB dcd | "D"fdc "Bm"B2 A |
[V:2] z|B,,2[BDF]F,,2[BDF]|D,2[AFD]A,,2[AEC]|B,,2[BDF]F,,2[BDF]|D,2[AFD]B,,2[BFD]|
%
[V:1] "Bm"FBB dBB|"D"afd "A"cBA | "D"FAd "G"BGB | "A7"AGE "D"D2 :|
[V:2] B,,2[BDF]F,,2[BDF]|D,2[AFD]A,,2[AEC]|D,2[AFD]G,,2[GDB]|A,,2[GCE][D,2A,2F2]:|
%
[V:1] A|"Bm"Bff "F#m"cff | "D"dfa "Bm"baf | "D"d2 f "Em"ede | "D"fdc "Bm"B2 A |
[V:2] z|B,,2[BFD]F,,2[FCA]|D,2[AFD]B,,2[BFD]|D,2[AFD]E,2[EBG]|D,2[AFD]B,,2[BFD]|
%
[V:1] "Bm"Bff "F#m"cff | "D"dfa afa | "G"b2 f "D"agf |1 "A"edc "D"d2 :|2\
"A"edc "D"Hd3||
[V:2] B,,2[BFD]F,,2[FCA]|D,2[AFD]A,,2[AFD]|G,,2[GDB]D,2[AFD]|1 A,,2[AEC][D,2A,2F2]:|2\
A,,2[AEC]H[D,3A,3F3]||

%%%%%%%%%%%%%%%%%%%%%%%%%%%%%%%%%%%%%%%%%%%

